website/public/Images/logos/slackLogo.svg

<svg width="32" height="32" viewBox="0 0 32 32" fill="none" xmlns="http://www.w3.org/2000/svg">
<path d="M6.73014 20.1648C6.73014 22.0188 5.23177 23.5173 3.37777 23.5173C1.52377 23.5173 0.0253906 22.0188 0.0253906 20.1648C0.0253906 18.3109 1.52377 16.8125 3.37789 16.8125H6.73002V20.1649L6.73014 20.1648ZM8.40639 20.1648C8.40639 18.3109 9.90477 16.8125 11.7588 16.8125C13.6128 16.8125 15.1111 18.3109 15.1111 20.1649V28.5457C15.1111 30.3997 13.6128 31.8983 11.7586 31.8983C9.90489 31.8983 8.40639 30.3997 8.40639 28.5457V20.1649V20.1648Z" fill="#E01E5A"/>
<path d="M11.7587 6.70475C9.90475 6.70475 8.40625 5.20638 8.40625 3.35238C8.40625 1.49838 9.90487 0 11.7587 0C13.6126 0 15.1111 1.49838 15.1111 3.35238V6.70487H11.7586L11.7587 6.70475ZM11.7587 8.40637C13.6128 8.40637 15.1111 9.90475 15.1111 11.7587C15.1111 13.6128 13.6128 15.1111 11.7586 15.1111H3.3525C1.49837 15.1111 0 13.6128 0 11.7586C0 9.90487 1.49838 8.40637 3.35238 8.40637H11.7586H11.7587Z" fill="#36C5F0"/>
<path d="M25.194 11.7587C25.194 9.90475 26.6924 8.40625 28.5462 8.40625C30.4002 8.40625 31.8987 9.90475 31.8987 11.7587C31.8987 13.6128 30.4002 15.1111 28.5462 15.1111H25.194V11.7586V11.7587ZM23.5177 11.7587C23.5177 13.6128 22.0192 15.1111 20.1652 15.1111C18.3114 15.1111 16.813 13.6128 16.813 11.7586V3.3525C16.813 1.49837 18.3114 0 20.1652 0C22.0191 0 23.5176 1.49838 23.5176 3.35238V11.7586L23.5177 11.7587Z" fill="#2EB67D"/>
<path d="M20.1652 25.1935C22.0192 25.1935 23.5177 26.6919 23.5177 28.5457C23.5177 30.3997 22.0192 31.8983 20.1652 31.8983C18.3114 31.8983 16.813 30.3997 16.813 28.5457V25.1935H20.1654H20.1652ZM20.1652 23.5173C18.3114 23.5173 16.813 22.0188 16.813 20.1648C16.813 18.3109 18.3114 16.8125 20.1654 16.8125H28.5716C30.4256 16.8125 31.9241 18.3109 31.9241 20.1649C31.9241 22.0188 30.4256 23.5173 28.5716 23.5173H20.1654H20.1652Z" fill="#ECB22E"/>
</svg>

<svg xmlns="http://www.w3.org/2000/svg" width="32" height="32" fill="none" xmlns:v="https://vecta.io/nano"><path d="M6.73 20.165a3.35 3.35 0 0 1-3.352 3.352 3.35 3.35 0 1 1 0-6.705H6.73v3.352h0zm1.676 0a3.35 3.35 0 1 1 6.705 0v8.381a3.35 3.35 0 1 1-6.705 0v-8.381h0z" fill="#e01e5a"/><path d="M11.759 6.705a3.35 3.35 0 0 1-3.352-3.352 3.35 3.35 0 1 1 6.705 0v3.352h-3.353 0zm0 1.702a3.35 3.35 0 1 1 0 6.705H3.353a3.35 3.35 0 1 1 0-6.705h8.406 0z" fill="#36c5f0"/><path d="M25.194 11.759a3.35 3.35 0 1 1 6.705 0 3.35 3.35 0 0 1-3.353 3.352h-3.352v-3.353h0zm-1.676 0a3.35 3.35 0 1 1-6.705 0V3.353a3.35 3.35 0 1 1 6.705 0v8.406h0z" fill="#2eb67d"/><path d="M20.165 25.194a3.35 3.35 0 1 1 0 6.705 3.35 3.35 0 0 1-3.352-3.353v-3.352h3.352 0zm0-1.676a3.35 3.35 0 1 1 0-6.705h8.406a3.35 3.35 0 1 1 0 6.705h-8.406 0z" fill="#ecb22e"/></svg>
